X:0111
T:Push about the Jorum.
M:2/4
L:1/8
Q:1/2=100
I: :: ::
Z:Jack Campin * www.campin.me.uk * 2009
K:G
g   |dBAG|FAAc|BGBd|g2fe|dGBG|FAAc|EGFA           |G2G:|
d   |ggfg|afdd|ggfg|a2dd|ggfg|afed|(ef/g/) (fg/a/)|g3
f/e/|dGBG|FAAc|BGBd|g2fe|dGBG|FAAc|EGFA           |G2G|]

